_inc/images/game_info_players.svg

<svg xmlns="http://www.w3.org/2000/svg" xml:space="preserve" viewBox="0 0 52 50"><path fill="#666" d="M31.4 10.6c2.4 1.5 4.1 4.1 4.4 7 1 .5 2.1.7 3.2.7 4.2 0 7.6-3.4 7.6-7.7S43.2 3 39 3s-7.5 3.4-7.6 7.6m-5 15.7c4.2 0 7.6-3.4 7.6-7.7s-3.4-7.7-7.6-7.7-7.6 3.4-7.6 7.7 3.4 7.7 7.6 7.7m3.2.5h-6.5c-5.4 0-9.7 4.4-9.7 9.8v8l.5.2c5.1 1.6 9.6 2.1 13.3 2.1 7.2 0 11.3-2.1 11.6-2.2l.5-.3h.1v-7.9c0-5.4-4.4-9.7-9.8-9.7m12.6-7.9h-6.4c-.1 2.6-1.2 4.9-2.9 6.6 4.8 1.4 8.3 5.9 8.3 11.1v2.5c6.3-.3 10-2 10.2-2.1l.5-.3h.1v-8c-.1-5.4-4.4-9.8-9.8-9.8m-29.1-.5c1.5 0 2.8-.5 4.1-1.2.4-2.5 1.7-4.6 3.6-6.1v-.5c0-4.2-3.4-7.7-7.6-7.7s-7.6 3.4-7.6 7.7c-.1 4.3 3.3 7.8 7.5 7.8m6.8 7c-1.7-1.7-2.8-4-2.9-6.5-.3 0-.5-.1-.7-.1H9.8c-5.4 0-9.7 4.4-9.7 9.8v8l.5.2c4.1 1.3 7.8 1.9 10.9 2.1v-2.4c.1-5.2 3.6-9.7 8.4-11.1" style="fill:#fff"/></svg>

<?xml version="1.0" encoding="UTF-8" standalone="no"?>
<!-- Generator: Adobe Illustrator 23.0.3, SVG Export Plug-In . SVG Version: 6.00 Build 0)  -->

<svg
   version="1.1"
   id="Capa_1"
   x="0px"
   y="0px"
   viewBox="0 0 52 50"
   xml:space="preserve"
   sodipodi:docname="game_info_players.svg"
   inkscape:version="1.2 (dc2aedaf03, 2022-05-15)"
   xmlns:inkscape="http://www.inkscape.org/namespaces/inkscape"
   xmlns:sodipodi="http://sodipodi.sourceforge.net/DTD/sodipodi-0.dtd"
   xmlns="http://www.w3.org/2000/svg"
   xmlns:svg="http://www.w3.org/2000/svg"><defs
   id="defs9" /><sodipodi:namedview
   id="namedview7"
   pagecolor="#505050"
   bordercolor="#ffffff"
   borderopacity="1"
   inkscape:showpageshadow="0"
   inkscape:pageopacity="0"
   inkscape:pagecheckerboard="1"
   inkscape:deskcolor="#505050"
   showgrid="false"
   inkscape:zoom="4.72"
   inkscape:cx="26.059322"
   inkscape:cy="25.105932"
   inkscape:window-width="1920"
   inkscape:window-height="1017"
   inkscape:window-x="-8"
   inkscape:window-y="-8"
   inkscape:window-maximized="1"
   inkscape:current-layer="Capa_1" />
<g
   id="g4"
   style="fill:#ffffff">
	<path
   fill="#666666"
   d="M31.4,10.6c2.4,1.5,4.1,4.1,4.4,7c1,0.5,2.1,0.7,3.2,0.7c4.2,0,7.6-3.4,7.6-7.7S43.2,3,39,3   S31.5,6.4,31.4,10.6z M26.4,26.3c4.2,0,7.6-3.4,7.6-7.7s-3.4-7.7-7.6-7.7s-7.6,3.4-7.6,7.7S22.2,26.3,26.4,26.3z M29.6,26.8h-6.5   c-5.4,0-9.7,4.4-9.7,9.8v7.9v0.1l0.5,0.2c5.1,1.6,9.6,2.1,13.3,2.1c7.2,0,11.3-2.1,11.6-2.2l0.5-0.3h0.1v-7.9   C39.4,31.1,35,26.8,29.6,26.8z M42.2,18.9h-6.4c-0.1,2.6-1.2,4.9-2.9,6.6c4.8,1.4,8.3,5.9,8.3,11.1v2.5c6.3-0.3,10-2,10.2-2.1   l0.5-0.3H52v-8C51.9,23.3,47.6,18.9,42.2,18.9z M13.1,18.4c1.5,0,2.8-0.5,4.1-1.2c0.4-2.5,1.7-4.6,3.6-6.1c0-0.1,0-0.3,0-0.5   c0-4.2-3.4-7.7-7.6-7.7s-7.6,3.4-7.6,7.7C5.5,14.9,8.9,18.4,13.1,18.4z M19.9,25.4c-1.7-1.7-2.8-4-2.9-6.5c-0.3,0-0.5-0.1-0.7-0.1   H9.8c-5.4,0-9.7,4.4-9.7,9.8v7.9v0.1l0.5,0.2c4.1,1.3,7.8,1.9,10.9,2.1v-2.4C11.6,31.3,15.1,26.8,19.9,25.4z"
   id="path2"
   style="fill:#ffffff" />
</g>
</svg>
